<?xml version="1.0" encoding="UTF-8"?>
<map version="1.10" tiledversion="1.12.2" orientation="orthogonal" renderorder="right-down" width="18" height="13" tilewidth="32" tileheight="32" infinite="0" nextlayerid="6" nextobjectid="1">
 <tileset firstgid="1" name="Room_Builder" tilewidth="32" tileheight="32" tilecount="8588" columns="76">
  <image source="tilesets/Room_Builder_32x32.png" width="2432" height="3616"/>
 </tileset>
 <tileset firstgid="8589" name="Generic" tilewidth="32" tileheight="32" tilecount="1248" columns="16">
  <image source="tilesets/1_Generic_32x32.png" width="512" height="2496"/>
 </tileset>
 <tileset firstgid="9837" name="Japanese" tilewidth="32" tileheight="32" tilecount="512" columns="16">
  <image source="tilesets/20_Japanese_interiors_32x32.png" width="512" height="1024"/>
 </tileset>
 <tileset firstgid="10349" name="Kitchen" tilewidth="32" tileheight="32" tilecount="784" columns="16">
  <image source="tilesets/12_Kitchen_32x32.png" width="512" height="1568"/>
 </tileset>
 <tileset firstgid="11133" name="Ice_Cream" tilewidth="32" tileheight="32" tilecount="272" columns="16">
  <image source="tilesets/24_Ice_Cream_Shop_32x32.png" width="512" height="544"/>
 </tileset>
 <layer id="1" name="1_Floor" width="18" height="13">
  <data encoding="csv">
9869,9870,9869,9870,9869,9870,9869,9870,9869,9870,9869,9870,9869,9870,9869,9870,9869,9870,
9885,9886,9885,9886,9885,9886,9885,9886,9885,9886,9885,9886,9885,9886,9885,9886,9885,9886,
9869,9870,9869,9870,9869,9870,9869,9870,9869,9870,9869,9870,9869,9870,9869,9870,9869,9870,
9885,9886,9885,9886,9885,9886,9885,9886,9885,9886,9885,9886,9885,9886,9885,9886,9885,9886,
9869,9870,9869,9870,9869,9870,9869,9870,9869,9870,9869,9870,9869,9870,9869,9870,9869,9870,
9885,9886,9885,9886,9885,9886,9885,9886,9885,9886,9885,9886,9885,9886,9885,9886,9885,9886,
9869,9870,9869,9870,9869,9870,9869,9870,9869,9870,9869,9870,9869,9870,9869,9870,9869,9870,
9885,9886,9885,9886,9885,9886,9885,9886,9885,9886,9885,9886,9885,9886,9885,9886,9885,9886,
9869,9870,9869,9870,9869,9870,9869,9870,9869,9870,9869,9870,9869,9870,9869,9870,9869,9870,
9885,9886,9885,9886,9885,9886,9885,9886,9885,9886,9885,9886,9885,9886,9885,9886,9885,9886,
9869,9870,9869,9870,9869,9870,9869,9870,9869,9870,9869,9870,9869,9870,9869,9870,9869,9870,
9885,9886,9885,9886,9885,9886,9885,9886,9885,9886,9885,9886,9885,9886,9885,9886,9885,9886,
0,0,10511,10512,10513,10512,10511,10512,10513,0,0,0,0,0,0,0,0,0
</data>
 </layer>
 <layer id="2" name="2_Walls" width="18" height="13">
  <data encoding="csv">
6362,3118,3118,3118,3118,3118,3118,3118,3118,3118,3118,3118,3118,3118,3118,3118,3118,6290,
6438,3194,3194,3194,3194,3194,3194,3194,3194,3194,3194,3194,3194,3194,3194,3194,3194,6443,
389,0,0,0,0,0,0,0,0,0,0,0,0,0,0,0,0,388,
389,0,0,0,0,0,0,0,0,0,0,0,0,0,0,0,0,388,
389,0,0,0,0,0,0,0,0,0,0,0,0,0,0,0,0,388,
389,0,0,0,0,0,0,0,0,0,0,0,0,0,0,0,0,388,
389,0,0,0,0,0,0,0,0,0,0,0,0,0,0,0,0,388,
389,0,0,0,0,0,0,0,0,0,0,0,0,0,0,0,0,388,
389,0,0,0,0,0,0,0,0,0,0,0,0,0,0,0,0,388,
389,0,0,0,0,0,0,0,0,0,0,0,0,0,0,0,0,388,
389,0,0,0,0,0,0,0,0,0,0,0,0,0,0,0,0,388,
389,0,0,0,0,0,0,0,0,0,0,0,0,0,0,0,0,388,
5603,538,0,0,0,0,0,0,0,467,4541,4541,4541,4541,4541,4541,4541,4542
</data>
 </layer>
 <layer id="3" name="3_Furniture" width="18" height="13">
  <data encoding="csv">
0,11133,11134,11133,11134,10621,10622,0,0,0,0,0,0,8925,8926,8927,0,0,
0,11181,11182,11181,11182,10637,10638,0,0,0,0,0,0,8941,8942,8943,0,0,
0,11197,11198,11197,11198,0,8895,0,8591,0,0,0,0,0,0,0,0,0,
0,8621,0,0,0,0,0,0,8623,0,0,0,0,0,0,0,0,0,
0,8637,8638,8638,8638,8638,8638,8638,8639,0,0,0,0,0,0,0,0,0,
0,0,0,0,0,0,0,0,0,0,0,0,0,0,0,0,0,0,
0,0,0,0,0,0,0,0,0,0,0,0,0,0,0,0,0,0,
0,0,0,0,0,0,0,0,0,0,0,0,0,0,0,0,0,0,
0,0,0,0,0,0,0,0,0,0,0,0,0,0,0,0,0,0,
0,9492,0,0,0,0,0,0,0,0,0,0,0,0,0,0,0,0,
0,9508,0,0,0,0,0,0,0,0,0,0,0,0,0,0,0,0,
0,9524,0,0,0,0,0,0,0,0,0,0,0,0,0,0,0,0,
0,0,0,0,0,0,0,0,0,0,0,0,0,0,0,0,0,0
</data>
 </layer>
 <layer id="5" name="4_furniture" width="18" height="13">
  <data encoding="csv">
0,0,0,0,0,0,0,10727,0,0,0,0,10133,0,0,0,0,0,
0,0,0,0,0,0,0,10743,0,0,0,0,10149,0,0,0,10881,10882,
0,10958,0,0,0,0,0,10759,0,0,0,0,0,0,0,0,10897,10898,
0,10974,0,0,0,0,9223,9224,0,0,0,0,0,0,0,0,10913,10914,
0,0,0,0,0,0,9239,9240,0,0,10251,10252,0,0,10251,10252,0,0,
0,0,0,0,0,0,0,0,0,0,10267,10268,0,0,10267,10268,0,0,
0,0,0,0,0,0,0,0,0,0,10283,10284,0,0,10283,10284,0,0,
0,0,0,0,0,0,0,0,0,0,0,0,0,0,0,0,0,0,
0,0,0,0,0,0,0,0,0,0,0,0,0,0,0,0,0,0,
0,0,0,0,0,0,0,0,0,0,0,0,0,0,0,0,9972,0,
0,0,0,0,0,0,0,0,0,0,0,0,0,0,0,0,9988,0,
0,0,0,0,0,0,0,0,0,0,0,0,0,0,0,0,10004,0,
0,0,0,0,0,0,0,0,0,0,0,0,0,0,0,0,0,0
</data>
 </layer>
</map>
